material/.icons/material/battery-charging-high.svg

<svg xmlns="http://www.w3.org/2000/svg" viewBox="0 0 24 24"><path d="M12 20H4V6h8m.67-2H11V2H5v2H3.33C2.6 4 2 4.6 2 5.33v15.34C2 21.4 2.6 22 3.33 22h9.34c.74 0 1.33-.59 1.33-1.33V5.33C14 4.6 13.4 4 12.67 4M11 16H5v3h6v-3m0-9H5v3h6V7m0 4.5H5v3h6v-3M23 10h-3V3l-5 10h3v8"/></svg>

<?xml version="1.0" encoding="UTF-8"?><!DOCTYPE svg PUBLIC "-//W3C//DTD SVG 1.1//EN" "http://www.w3.org/Graphics/SVG/1.1/DTD/svg11.dtd"><svg xmlns="http://www.w3.org/2000/svg" xmlns:xlink="http://www.w3.org/1999/xlink" version="1.1" id="mdi-battery-charging-high" width="24" height="24" viewBox="0 0 24 24"><path d="M12 20H4V6H12M12.67 4H11V2H5V4H3.33C2.6 4 2 4.6 2 5.33V20.67C2 21.4 2.6 22 3.33 22H12.67C13.41 22 14 21.41 14 20.67V5.33C14 4.6 13.4 4 12.67 4M11 16H5V19H11V16M11 7H5V10H11V7M11 11.5H5V14.5H11V11.5M23 10H20V3L15 13H18V21" /></svg>
